X:608
T:Reel 608
M:4/4
K:Gmaj
L:1/8
dc|BGGB AGED|DGGB cege|dGGB AGAB|c2BG AGEG|BGGd AGEG|DGGB c2Bc|d2eg agaf|gedB A2G2|dggf edef|degB BAAc|dggf edef|gabg efge|dggf edgB|dcBc AGEG|DGGF GABd|egdc BGG|
